src/symbolic/places/mail-inbox-symbolic.svg

<?xml version="1.0" encoding="UTF-8" standalone="no"?>
<svg
   xmlns:dc="http://purl.org/dc/elements/1.1/"
   xmlns:cc="http://creativecommons.org/ns#"
   xmlns:rdf="http://www.w3.org/1999/02/22-rdf-syntax-ns#"
   xmlns:svg="http://www.w3.org/2000/svg"
   xmlns="http://www.w3.org/2000/svg"
   xmlns:sodipodi="http://sodipodi.sourceforge.net/DTD/sodipodi-0.dtd"
   xmlns:inkscape="http://www.inkscape.org/namespaces/inkscape"
   height="16"
   width="16"
   version="1.1"
   id="svg6"
   sodipodi:docname="mail-inbox-symbolic.svg"
   inkscape:version="0.92.4 (5da689c313, 2019-01-14)">
  <metadata
     id="metadata12">
    <rdf:RDF>
      <cc:Work
         rdf:about="">
        <dc:format>image/svg+xml</dc:format>
        <dc:type
           rdf:resource="http://purl.org/dc/dcmitype/StillImage" />
      </cc:Work>
    </rdf:RDF>
  </metadata>
  <defs
     id="defs10" />
  <sodipodi:namedview
     pagecolor="#ffffff"
     bordercolor="#666666"
     borderopacity="1"
     objecttolerance="10"
     gridtolerance="10"
     guidetolerance="10"
     inkscape:pageopacity="0"
     inkscape:pageshadow="2"
     inkscape:window-width="1366"
     inkscape:window-height="711"
     id="namedview8"
     showgrid="true"
     inkscape:zoom="29.5"
     inkscape:cx="-7.9230122"
     inkscape:cy="7.6016201"
     inkscape:window-x="0"
     inkscape:window-y="27"
     inkscape:window-maximized="1"
     inkscape:current-layer="svg6">
    <inkscape:grid
       type="xygrid"
       id="grid829" />
  </sodipodi:namedview>
  <path
     inkscape:connector-curvature="0"
     id="path2"
     style="color:#bebebe;overflow:visible;fill:#666666;marker:none"
     overflow="visible"
     d="M 7.5,1.002 C 7.2282237,1.0122665 7.0102665,1.2302237 7,1.502 v 3.5 H 5.5 c -0.277,0.008 -0.478,0.3 -0.465,0.566 0,0.09 0.032,0.174 0.09,0.246 l 2.5,3 c 0.205126,0.2118347 0.544874,0.2118347 0.75,0 l 2.5,-3 C 11.106,5.526 10.865,5.014 10.5,5.002 H 9 v -3.5 c -0.00341,-0.2405075 -0.1713144,-0.4472922 -0.406,-0.5 -0.031261,-0.003 -0.062739,-0.003 -0.094,0 z"
     sodipodi:nodetypes="ccccccccccccccc" />
  <path
     style="opacity:1;fill:#666666;fill-opacity:1;fill-rule:evenodd;stroke:none;stroke-width:2;stroke-linecap:square;stroke-linejoin:miter;stroke-miterlimit:4;stroke-dasharray:none;stroke-opacity:1;paint-order:fill markers stroke"
     d="M 2 2 C 1.446 2 1 2.446 1 3 L 1 14 C 1 14.554 1.446 15 2 15 L 14 15 C 14.554 15 15 14.554 15 14 L 15 3 C 15 2.446 14.554 2 14 2 L 12 2 L 10 2 L 10 3 L 12 3 L 14 3 L 14 10 L 10 10 C 10 11.104569 9.1045696 12 8 12 C 6.8954305 12 6 11.104569 6 10 L 2 10 L 2 3 L 4 3 L 5.1074219 3 L 6 3 L 6 2 L 5.9160156 2 L 4 2 L 2 2 z M 2 11 L 3 11 L 5.1738281 11 C 5.5973349 12.197859 6.7294788 12.999045 8 13 C 9.2698043 12.998218 10.400952 12.197185 10.824219 11 L 13 11 L 14 11 L 14 12 L 14 14 L 13 14 L 3 14 L 2 14 L 2 12 L 2 11 z "
     id="rect824" />
</svg>

<svg xmlns="http://www.w3.org/2000/svg" height="16" width="16"><path style="marker:none" overflow="visible" d="M7.5 1.002a.52.52 0 0 0-.5.5v3.5H5.5c-.277.008-.478.3-.465.566 0 .09.032.174.09.246l2.5 3a.522.522 0 0 0 .75 0l2.5-3c.231-.288-.01-.8-.375-.812H9v-3.5a.52.52 0 0 0-.406-.5.492.492 0 0 0-.094 0z" color="#5d656b" fill="#5d656b"/><path d="M2 2c-.554 0-1 .446-1 1v11c0 .554.446 1 1 1h12c.554 0 1-.446 1-1V3c0-.554-.446-1-1-1h-4v1h4v7h-4a2 2 0 0 1-4 0H2V3h4V2H2zm0 9h3.174A3 3 0 0 0 8 13a3 3 0 0 0 2.824-2H14v3H2v-3z" fill="#5d656b" fill-rule="evenodd" paint-order="fill markers stroke"/></svg>
